X: 4
T:La Charge
C:Manu Paris
R:Bourree
I:Centre France
Z:edited by Dave Holland <dave@biff.org.uk>
Q:1/4=150
M:2/4
L:1/8
K:Dm
D2F(E| E)GAG|D3/2E/2 F(E|E)F EC|\
D3/2E/2 F(E|E)GAG|D3/2E/2F(G |G4):|
A3(B|B2)GF|E3/2F/2 G(F|F4)|D3/2F/2 EG|FFED|E2D(G|G)E FG|
A3/2B/2 cB-|B2GF|E3/2F/2 G(F|F4)|D3/2F/2 EG|A2GF|E3(D|D4)|]
<end>
<start>
